assets/sketch/mono.svg

<svg viewBox="0 0 24 24" xmlns="http://www.w3.org/2000/svg"><path d="m12 1.25 6.75 6.637v-5.887zm0 0-6.05 7h12.1zm0 0-6.75.75v5.887zm-6.75.75-5.25 7 4.416-.68zm-5.25 7 11.959 13.703.008-.014-7.524-13.689zm18.75-7 .834 6.32 4.416.68zm5.25 7h-4.506l-7.523 13.69.029.06zm-12 13.75-.031-.057-.008.012zm-6.564-13.75 6.533 13.686 6.595-13.686z"/></svg>

<svg xmlns="http://www.w3.org/2000/svg" viewBox="0 0 24 24"><path d="m12 1.25 6.75 6.637V2zm0 0-6.05 7h12.1zm0 0L5.25 2v5.887zM5.25 2 0 9l4.416-.68zM0 9l11.959 13.703.008-.014L4.443 9zm18.75-7 .834 6.32L24 9zM24 9h-4.506l-7.523 13.69.029.06zM12 22.75l-.031-.057-.008.012zM5.436 9l6.533 13.686L18.564 9z"/></svg>
